X:375
T:Kilchattan Wedding, The
T:Calum Figheadair
R:Reel
B:The Athole Collection
M:C|
L:1/8
K:D Minor
c|Addf cAAa|fAAf cAAf|Addf cAAa|~f^c d/d/d G2G:|
|:f|de~fc d/d/d g2|fd d/d/d ecce|1 de~fc d/d/d g2|f^c d/d/d G2G:|2
bagf dfga|~f^c d/d/d G2G||

